X:1
T:Title
%%score { ( 1 3 ) | ( 2 4 ) }
L:1/8
M:4/4
K:Db
V:1 treble nm="Grand Piano"
V:3 treble 
V:2 bass 
V:4 bass 
V:1
 z4 z2[Q:1/4=114] DF | [FA]2 [FA]2 [GB]2 [Gc]2 | [Fd]4 [FA]2 [DF][DB] | [CA]2 [CA]2 [CG]2 [CE]2 | %4
 F6 DF | [FA]2 [FA]2 [GB]2 [Gc]2 | [Fd]4 [FA]2 [Fd][Fd] | c2 A2 B2 =G2 | [A,CA]6 z2 | %9
 [Gc]2 [Ge]2 [GB]2 [Gc]2 | [FB]4 z4 | [Gc]2 [Ge]2 [GB]2 [Gc]2 | [FA]6 [A,D][A,CE] | %13
 [A,DF]2 [A,DF]2 [G,DG]2 A2 |[M:9/8] z2 =D- D e2- e d2 |[M:4/4] c2 cB [CEA]2 [B,D=G]2 | %16
[M:3/4] [A,CA]6 |[M:1/4] z2 |[M:4/4] [DFd]4 [DFA]4 | [DFd]4 [DFA]2 DE | F2 G2 A2 [_CF=A]2 | %21
 [B,DGB]6 z2 | [EGe]4 [EGB]4 | [EGe]4 [EGB]2 EF | G2 [EG]2 [CGc]2 [CGB]2 | [DFA]6 z2 | %26
 [Fd]4 [DFA]4 | [Fd]4 [DFA]2 DE | F2 [DF]2 [DG]2 [_CDFA]2 | [B,DGB]6 B2 | [Ge]2 [GB]2 [Ge]2 [GB]2 | %31
 d2 A2 d2 F2 | %32
 GABd d2 e2[Q:1/4=112][Q:1/4=110][Q:1/4=109][Q:1/4=107][Q:1/4=105][Q:1/4=103][Q:1/4=102][Q:1/4=100][Q:1/4=98][Q:1/4=96][Q:1/4=94][Q:1/4=93][Q:1/4=91][Q:1/4=89][Q:1/4=87] | %33
[M:3/4] [Fd]6 |] %34
V:2
 z4 z2 [D,F,][D,A,D] | [D,D]2 [D,D]2 [D,B,]2 [D,=A,]2 | [D,A,]4 [D,D]2 [D,A,][D,F,] | %3
 [A,,E,]2 [A,,E,]2 [A,,A,]2 [A,,A,]2 | [D,A,D]6 [D,F,][D,A,D] | [D,D]2 [D,D]2 [D,B,]2 [D,B,]2 | %6
 [D,A,]4 [D,D]2 [D,A,][D,A,] | [E,A,E]2 [E,CE]2 [E,=G,D]2 [E,B,D]2 | A,,6[K:treble] AA | %9
 [A,,A,]2 [A,C]2 [A,,A,]2 [A,C]2 | [D,,D,]2 [F,A,]2 [D,,D,]2 [F,A,D]2 | %11
 [A,,A,]2 [A,C]2 [A,,A,]2 [A,C]2 | [D,,D,]2 A,,2 D,,2 F,E, | D,2 _C,2 B,,2 [D,F,D]2 | %14
[M:9/8] [G,D]2 [F,A,]- [F,A,] [E,=G,E]2- [E,G,E] [G,B,E]2 |[M:4/4] [A,E]2 A,B, E,2 E,2 | %16
[M:3/4] A,,6 |[M:1/4] A2 |[M:4/4] [D,,D,]2 [A,,,A,,]2 [D,,D,]2 [A,,,A,,]2 | %19
 [D,,D,]2 [A,,,A,,]2 [D,,D,]2 [F,A,]E, | [D,A,D]2 [E,A,C]2 [F,A,D]2 [D,,D,]2 | %21
 [G,,G,]2 D,2 G,,2[K:treble] B2 | [E,,E,]2 [B,,,B,,]2 [E,,E,]2 [B,,,B,,]2 | %23
 [E,,E,]2 [B,,,B,,]2 [E,,E,]2 [G,B,][F,B,=D] | [E,B,E]2 [C,A,]2 [A,,A,]2 [A,,,A,,]2 | %25
 [D,,D,]2 A,,2 D,,2 A2 | [D,,D,]2 [A,,,A,,]2 [D,,D,]2 [A,,,A,,]2 | %27
 [D,,D,]2 [A,,,A,,]2 [D,,D,]2 [F,A,]E, | [D,A,D]2 [_C,A,]2 [B,,B,]2 [A,,A,]2 | %29
 [G,,G,]2 D,2 G,,2 B,2 | [E,B,]2 [E,E]2 [E,B,]2 [E,B,]2 | [A,F]2 [A,DF]2 [A,F]2[K:bass] [D,_CD]2 | %32
 [B,D]2 [E,B,]2[K:treble] [A,B,G]2 [A,CG]2 |[M:3/4][K:bass] [D,D]6 |] %34
V:3
 x8 | x8 | x8 | x8 | x8 | x8 | x8 | x8 | x8 | x8 | z2 D2 [FA]2 AA | x8 | x8 | x8 |[M:9/8] .B6 z3 | %15
[M:4/4] z2 F2 z4 |[M:3/4] x6 |[M:1/4] x2 |[M:4/4] x8 | x8 | x8 | x8 | x8 | x8 | x8 | x8 | x8 | x8 | %28
 x8 | x8 | x8 | x8 | z2 G2 z4 |[M:3/4] x6 |] %34
V:4
 x8 | x8 | x8 | x8 | x8 | x8 | x8 | x8 | x6[K:treble] x2 | x8 | x8 | x8 | x8 | x8 |[M:9/8] x9 | %15
[M:4/4] z2 D,2 z4 |[M:3/4] x6 |[M:1/4] x2 |[M:4/4] x8 | x8 | x8 | x6[K:treble] x2 | x8 | x8 | x8 | %25
 x8 | x8 | x8 | x8 | x8 | x8 | x6[K:bass] x2 | x4[K:treble] x4 |[M:3/4][K:bass] x6 |] %34

